src/assets/mistake.svg

<svg xmlns="http://www.w3.org/2000/svg" width="1700" height="1968" fill="none" viewBox="0 0 1700 1968">
    <path fill="#d3f0ff" stroke="#7f42e1" stroke-linecap="round" stroke-linejoin="round" stroke-width="22" d="m1562.87 499.557-56.19 1214.753-78.88 38.6-26.17-568.68-426.604-281.385-17.643 449.165-78.865 38.58L890.88 56.31z"/>
    <path fill="#d3f0ff" stroke="#7f42e1" stroke-linecap="round" stroke-linejoin="round" stroke-width="22" d="M1483.99 538.156 1427.8 1752.91 1305.11 1672l17.64-449.17-426.606-281.385-17.626 449.145-122.715-80.93L812.024 94.925z"/>
    <path fill="#d3f0ff" stroke="#7f42e1" stroke-linecap="round" stroke-linejoin="round" stroke-width="22" d="M1483.99 538.156 1111.94 1880.49l-88.32 28.89 86.88-547.18-426.606-281.39-121.229 437.36-88.326 28.89L812.024 94.925z"/>
    <path fill="#fff" stroke="#7f42e1" stroke-linecap="round" stroke-linejoin="round" stroke-width="22" d="m1395.62 567.055-372 1342.325-122.718-80.92 121.228-437.36-426.59-281.42-121.202 437.38-122.715-80.93L723.671 123.798zm0-.003 88.37-28.895L812.023 94.925l-88.352 28.87z"/>
    <path fill="#fff" stroke="#7f42e1" stroke-linecap="round" stroke-linejoin="round" stroke-width="22" d="m890.878 56.31-78.855 38.615 671.967 443.231 78.88-38.599z"/>
    <path fill="#d3f0ff" stroke="#7f42e1" stroke-linecap="round" stroke-linejoin="round" stroke-width="22" d="M863.905 975.68c37.234 25.48 57.278 73 46.06 109.35-4.794 15.54-14.373 25.96-26.682 30.8-16.447 6.46-58.365 19.15-58.365 19.15-37.234-25.48-89.761-115.15-78.543-151.491 0 0 47.407-15.906 60.869-20.288 16.091-5.238 36.388-1.393 56.661 12.479m100.55-576.54 128.955 88.181-167.343 451.893-58.301 19.151-25.754-76.635 64.948-464.698z"/>
    <path fill="#fff" stroke="#7f42e1" stroke-linecap="round" stroke-linejoin="round" stroke-width="22" d="M805.605 994.828c37.234 25.482 57.278 73.002 46.06 109.352-11.2 36.31-48.51 44.66-85.744 19.18s-57.278-73-46.06-109.35c11.2-36.315 48.51-44.66 85.744-19.182m100.55-576.54 128.955 88.181-167.344 451.893-84.054-57.484z"/>
    <path stroke="#7f42e1" stroke-linecap="round" stroke-linejoin="round" stroke-width="22" d="m1034.41 505.998 51.57-16.853"/>
</svg>

<svg width="1700" height="1968" viewBox="0 0 1700 1968" fill="none" xmlns="http://www.w3.org/2000/svg">
<path d="M1562.87 499.557L1506.68 1714.31L1427.8 1752.91L1401.63 1184.23L975.026 902.845L957.383 1352.01L878.518 1390.59L890.88 56.3093L1562.87 499.557Z" fill="#D3F0FF" stroke="#7F42E1" stroke-width="22" stroke-linecap="round" stroke-linejoin="round"/>
<path d="M1483.99 538.156L1427.8 1752.91L1305.11 1672L1322.75 1222.83L896.144 941.445L878.518 1390.59L755.803 1309.66L812.024 94.9252L1483.99 538.156Z" fill="#D3F0FF" stroke="#7F42E1" stroke-width="22" stroke-linecap="round" stroke-linejoin="round"/>
<path d="M1483.99 538.156L1111.94 1880.49L1023.62 1909.38L1110.5 1362.2L683.894 1080.81L562.665 1518.17L474.339 1547.06L812.024 94.9252L1483.99 538.156Z" fill="#D3F0FF" stroke="#7F42E1" stroke-width="22" stroke-linecap="round" stroke-linejoin="round"/>
<path d="M1395.62 567.055L1023.62 1909.38L900.902 1828.46L1022.13 1391.1L595.54 1109.68L474.338 1547.06L351.623 1466.13L723.671 123.798L1395.62 567.055Z" fill="white" stroke="#7F42E1" stroke-width="22" stroke-linecap="round" stroke-linejoin="round"/>
<path d="M1395.62 567.052L1483.99 538.157L812.023 94.9255L723.671 123.795L1395.62 567.052Z" fill="white" stroke="#7F42E1" stroke-width="22" stroke-linecap="round" stroke-linejoin="round"/>
<path d="M890.878 56.3095L812.023 94.9247L1483.99 538.156L1562.87 499.557L890.878 56.3095Z" fill="white" stroke="#7F42E1" stroke-width="22" stroke-linecap="round" stroke-linejoin="round"/>
<path d="M863.905 975.68C901.139 1001.16 921.183 1048.68 909.965 1085.03C905.171 1100.57 895.592 1110.99 883.283 1115.83C866.836 1122.29 824.918 1134.98 824.918 1134.98C787.684 1109.5 735.157 1019.83 746.375 983.489C746.375 983.489 793.782 967.583 807.244 963.201C823.335 957.963 843.632 961.808 863.905 975.68ZM964.455 399.14L1093.41 487.321L926.067 939.214L867.766 958.365L842.012 881.73L906.96 417.032L964.455 399.14Z" fill="#D3F0FF" stroke="#7F42E1" stroke-width="22" stroke-linecap="round" stroke-linejoin="round"/>
<path d="M805.605 994.828C842.839 1020.31 862.883 1067.83 851.665 1104.18C840.465 1140.49 803.155 1148.84 765.921 1123.36C728.687 1097.88 708.643 1050.36 719.861 1014.01C731.061 977.695 768.371 969.35 805.605 994.828ZM906.155 418.288L1035.11 506.469L867.766 958.362L783.712 900.878L906.155 418.288Z" fill="white" stroke="#7F42E1" stroke-width="22" stroke-linecap="round" stroke-linejoin="round"/>
<path d="M1034.41 505.998L1085.98 489.145" stroke="#7F42E1" stroke-width="22" stroke-linecap="round" stroke-linejoin="round"/>
</svg>
